X:1
T:Infant So Gentle
T:Infant So Gentle
T:From the French
T:Arranged by John Stainer (1840-1901)
T:Public Domain Courtesy of the Cyber Hymnal™
C:From the French
Z:Public Domain
Z:Courtesy of the Cyber Hymnal™
%%score 1 ( 2 3 ) ( 4 5 )
L:1/8
Q:1/4=110
M:3/4
K:G
V:1 treble 
V:2 treble 
V:3 treble 
V:4 bass 
V:5 bass 
V:1
 d2 B2 c2 x6 | d3 e d2 | c2 B2 A2 | (B4 c2) | d2 B2 c2 | d3 e d2 | (dc) B2 (BA) | G6 | c2 A2 A2 | %9
w: 1.~In- fant so|gen- tle, So|pure and so|sweet, *|Love from Thy|ho- ly eyes|Child- * ren doth *|greet.|Ten- d’rest words|
w: 2.~In- fant so|gen- tle, So|pure and so|sweet, *|See all the|child- ren who|Kneel * at Thy *|feet.|Grant them Thy|
 B2 G2 G2 | c2 A2 A2 | (B4 c2) | d2 B2 c2 | d2 !fermata!e3 d | (dc) B2 (BA) | G6 |] %16
w: fail all Thy|beau- ty to|show, *|We must a-|dore Thee If|Thee * we would *|know.|
w: bless- ing, O|Ba- by di-|vine, *|Lead them un-|to Thee And|make * them all *|Thine.|
V:2
 [Gd]2 [GB]2 [Fc]2 x6 | d3 e d2 | [EAc]2 [GB]2 [DFA]2 | ([GB]4 [Ac]2) | [Bd]2 [GB]2 [Fc]2 | %5
 d3 e d2 | (dc) [GB]2 (BA) | G6 | [Ac]2 [FA]2 [FA]2 | [GB]2 G2 G2 | [Ac]2 [FA]2 [FA]2 | %11
 ([GB]4 [Ac]2) | [Bd]2 [DGB]2 [DFc]2 | [DGd]2 !fermata![Ge]3 [Gd] | (dc) [GB]2 (BA) | G6 |] %16
V:3
 x12 | G6 | x6 | x6 | x6 | G6 | A2 x F2 x | x6 | x6 | x6 | x6 | x6 | x6 | x6 | A2 x F2 x | x6 |] %16
V:4
 [G,B,]2 [G,D]2 [A,D]2 D6 | C2 D2 D,2 | [G,D]6 | [G,B,]2 [G,D]2 [A,D]2 | D6 | [CE]2 D2 (DC) | %6
 [G,B,]6 | [D,A,]2 [D,D]2 [D,D]2 | [G,B,]2 [CE]2 [B,D]2 | [A,E]2 D2 [D,D]2 | [G,D]6 | G,4 A,2 | %12
 [B,D]2 !fermata!C3 [B,D] | [CE]2 D2 (DC) | [G,B,]6 | x6 |] %16
V:5
 x6 B,3 C B,2 | x6 | x6 | x6 | B,3 C B,2 | x4 D,2 | x6 | x6 | x6 | x6 | x6 | x6 | x6 | x4 D,2 | %14
 x6 | x6 |] %16

